X:1
T:Jesus, My Friend
T:Jesus, My Friend
T:Henry de Fluiter
T:Henry de Fluiter, 1918
T:Public Domain Courtesy of the Cyber Hymnal™
T:Public Domain Courtesy of the Cyber Hymnal™
C:Henry de Fluiter
Z:Public Domain
Z:Courtesy of the Cyber Hymnal™
%%score ( 1 2 ) ( 3 4 )
L:1/8
Q:1/4=108
M:6/8
K:Eb
V:1 treble 
V:2 treble 
V:3 bass 
V:4 bass 
V:1
"^Duet" [EG]3 ([FA][EG])[FA] | [GB]2 [Ge] [Ge]3 | [CE]3 ([DF][CE])[DF] | ([EG][FA])[EG] [DF]3 | %4
w: 1.~I have * a|friend so dear,|Con- stant * and|true * is He,|
w: 2.~He’s prom- * ised|to re- turn|To this * dark|world * be- low,|
w: 3.~Then why * should|sor- row fill|Hearts that * on|Him * re- ly,|
 [EG]3 ([FA][EG])[FA] | [GB]2 [Ge] [Ge]3 | [EG]3 ([DF][CE])[DF] | E3- E2"^Quartet" [EB] | %8
w: Fill- ing * my|heart with cheer,|So good * to|me. * He’s|
w: Though wick- * ed|men may spurn,|To Him * I’ll|go. * He’ll|
w: His bless- * èd|“Peace, be still”|Calms ev- * ery|cry. * Who|
 [DB]2 [DA] ([DF][EG])[FA] | [GB]2 [EG] E2 [EB] | [DB]2 [DA] ([B,D][DF])[DA] | %11
w: cov- ered ev- * ery|sin and stain, His|power now makes * me|
w: take me to * my|home on high, Where|I shall live * and|
w: fills with hope * and|cour- age now, And|at the last— * I|
 [Ec]2 [EB] [EG]2 [EB] | [Ec]2 [Ec] (ed)[Ec] | [EB]2 [EB] !fermata![Ee]3 | %14
w: whole a- gain, And|soon with Him * for-|e’er I’ll reign—|
w: ne- ver die, He’ll|wipe all tears * from|ev- ery eye—|
w: not not how— Will|place a crown * up-|on my brow—|
"^riten." [EG]3 ([DF][CE])[DF] | E6 |] %16
w: Je- sus, * my|friend.|
w: Je- sus, * my|friend.|
w: Je- sus, * my|friend.|
V:2
 x6 | x6 | x6 | x6 | x6 | x6 | x6 | E3- E2 x | x6 | x3 E2 x | x6 | x6 | x3 E2 x | x6 | x6 | E6 |] %16
V:3
 z (B,B,) z (B,B,) | z B,B, (E,G,,B,,) | z (G,G,) z (B,B,) | B,3 (B,F,B,) | z (B,B,) z (B,B,) | %5
 z B,B, x3 | z (B,B,) ([B,,A,][C,G,])[B,,A,] | ([E,G,][G,B,][F,A,]) [E,G,]2 [E,G,] | %8
 [B,,F,]2 [B,,F,] [B,,B,]2 [B,,B,] | [E,B,]2 [E,B,] [E,G,]2 [E,G,] | %10
 [B,,F,]2 [B,,F,] (F,A,)[B,,F,] | [E,A,]2 [E,G,] [E,B,]2 [G,B,] | A,2 A, (CB,)A, | %13
 [G,B,]2 [E,G,] !fermata![C,G,]3 | [B,,B,]3 ([B,,A,][C,G,])[B,,A,] | %15
 ([E,G,][G,B,][F,A,] [E,G,]3) |] %16
V:4
 E,3 B,,3 | E,3 x3 | C,3 B,,3 | (E,D,)E, B,,3 | E,3 E,3 | E,3 E,G,E, | E,3 x3 | x6 | x6 | x6 | %10
 x3 B,,2 x | x6 | A,2 A, A,2 A, | x6 | x6 | x6 |] %16

